X: 697
T: Zhangsheng xi yuanyang
L: 1/8
M: 2/4
K: Eb
G G/ B/ c e [I:setbarnb 1]| 
B c/ B/ G F | 
G G/ B/ c e | 
B c/ B/ G F | 
GB2e | 
c B G F | 
B F G B/ c/ | 
E> FE2 | 
G EF2 | 
B B e G | 
F G F E | 
F/ E/C2E | 
F G/ B/ E C | 
B,4 |]

@@@ Tune index: 9571
